en/_assets/data-transfer/icons/object-storage-icon.svg

<svg xmlns="http://www.w3.org/2000/svg" width="32" height="32" fill="none"><rect width="32" height="32" fill="#5282FF" rx="16"/><path fill="#fff" fill-rule="evenodd" d="M22 9c0-.6-.4-1-1-1H11c-.6 0-1 .4-1 1v2h12V9Zm1 4c0-.6-.4-1-1-1H10c-.6 0-1 .4-1 1v2h14v-2ZM9 16h14c.5 0 1 .4 1 1v6c0 .6-.4 1-1 1H9c-.6 0-1-.4-1-1v-6c0-.6.4-1 1-1Zm5 5h4c.5 0 1-.5 1-1 0-.6-.4-1-1-1h-4c-.6 0-1 .4-1 1s.4 1 1 1Z" clip-rule="evenodd"/></svg>

<svg width="32" height="32" viewBox="0 0 32 32" fill="none" xmlns="http://www.w3.org/2000/svg">
<rect width="32" height="32" rx="16" fill="#5282FF"/>
<path fill-rule="evenodd" clip-rule="evenodd" d="M22 9C22 8.4 21.6 8 21 8H11C10.4 8 10 8.4 10 9V11H22V9ZM23 13C23 12.4 22.6 12 22 12H10C9.4 12 9 12.4 9 13V15H23V13ZM9 16H23C23.5 16 24 16.4 24 17V23C24 23.6 23.6 24 23 24H9C8.4 24 8 23.6 8 23V17C8 16.4 8.4 16 9 16ZM14 21H18C18.5 21 19 20.5 19 20C19 19.4 18.6 19 18 19H14C13.4 19 13 19.4 13 20C13 20.6 13.4 21 14 21Z" fill="white"/>
</svg>
